svgs/sharp-light/transporter-6.svg

<svg xmlns="http://www.w3.org/2000/svg" viewBox="0 0 512 512"><!--! Font Awesome Pro 6.6.0 by @fontawesome - https://fontawesome.com License - https://fontawesome.com/license (Commercial License) Copyright 2024 Fonticons, Inc. --><path d="M64 16l0 16 16 0 16 0 0 32L80 64 64 64l0 16 0 16L32 96l0-16 0-16L16 64 0 64 0 32l16 0 16 0 0-16L32 0 64 0l0 16zM480 368l0 16 16 0 16 0 0 32-16 0-16 0 0 16 0 16-32 0 0-16 0-16-16 0-16 0 0-32 16 0 16 0 0-16 0-16 32 0 0 16zM208 0l16 0 64 0 16 0 0 32-16 0-64 0-16 0 0-32zM96 256l16 0 288 0 16 0 0 32-16 0-288 0-16 0 0-32zm0 192l16 0 288 0 16 0 0 16 0 32 0 16-32 0 0-16 0-16-256 0 0 16 0 16-32 0 0-16 0-32 0-16z"/></svg>

<svg xmlns="http://www.w3.org/2000/svg" viewBox="0 0 512 512"><!--! Font Awesome Pro 6.4.0 by @fontawesome - https://fontawesome.com License - https://fontawesome.com/license (Commercial License) Copyright 2023 Fonticons, Inc. --><path d="M64 16V32H80 96V64H80 64V80 96H32V80 64H16 0V32H16 32V16 0H64V16zM480 368v16h16 16v32H496 480v16 16H448V432 416H432 416V384h16 16V368 352h32v16zM208 0h16 64 16V32H288 224 208V0zM96 256h16H400h16v32H400 112 96V256zm0 192h16H400h16v16 32 16H384V496 480H128v16 16H96V496 464 448z"/></svg>
